assets/CPS.svg

<svg width="97.047852" height="51.313965" viewBox="0 0 97.0479 51.314" fill="none" xmlns="http://www.w3.org/2000/svg" xmlns:xlink="http://www.w3.org/1999/xlink">
	<desc>
			Created with Pixso.
	</desc>
	<defs/>
	<path id="Fill 1" d="M36.09 0.25C35.54 0.25 35.09 0.69 35.09 1.25L35.09 5.52C35.09 6.07 35.54 6.52 36.09 6.52L72.42 6.52C82.54 6.52 90.5 14.32 90.5 24.41L90.5 24.41C90.5 24.7 90.73 24.93 91.01 24.93L96.28 24.93C96.56 24.93 96.79 24.7 96.79 24.41L96.79 24.41C96.79 10.92 85.95 0.25 72.42 0.25L36.09 0.25Z" fill="#6B7B84" fill-opacity="1.000000" fill-rule="evenodd"/>
	<path id="Fill 1" d="M35.09 5.52C35.09 6.07 35.54 6.52 36.09 6.52L72.42 6.52C82.54 6.52 90.5 14.32 90.5 24.41C90.5 24.7 90.73 24.93 91.01 24.93L96.28 24.93C96.56 24.93 96.79 24.7 96.79 24.41C96.79 10.92 85.95 0.25 72.42 0.25L36.09 0.25C35.54 0.25 35.09 0.69 35.09 1.25L35.09 5.52Z" stroke="#80949F" stroke-opacity="1.000000" stroke-width="0.500000"/>
	<path id="Fill 3" d="M6.63 25.36L6.63 25.36C6.63 25.12 6.43 24.93 6.19 24.93L0.68 24.93C0.44 24.93 0.25 25.12 0.25 25.36L0.25 25.36C0.25 39.01 10.47 50.28 23.69 51.02L66.03 51.06C66.58 51.06 67.03 50.61 67.03 50.06L67.03 45.48C67.03 44.93 66.58 44.48 66.03 44.48L25.15 44.48C14.91 44.45 6.63 35.94 6.63 25.36Z" fill="#6B7B84" fill-opacity="1.000000" fill-rule="evenodd"/>
	<path id="Fill 3" d="M0.68 24.93C0.44 24.93 0.25 25.12 0.25 25.36C0.25 39.01 10.47 50.28 23.69 51.02L66.03 51.06C66.58 51.06 67.03 50.61 67.03 50.06L67.03 45.48C67.03 44.93 66.58 44.48 66.03 44.48L25.15 44.48C14.91 44.45 6.63 35.94 6.63 25.36C6.63 25.12 6.43 24.93 6.19 24.93L0.68 24.93Z" stroke="#80949F" stroke-opacity="1.000000" stroke-width="0.500000"/>
	<path id="Fill 5" d="M27.66 39.45C30.4 39.45 32.68 38.91 34.93 37.82L35.09 37.67L35.09 29.84L34.25 30.92C32.62 32.69 30.44 33.67 27.98 33.67C23.39 33.67 18.78 30.7 18.78 25.03C18.78 20.74 21.96 16.18 27.82 16.18C28.99 16.18 31.83 16.46 34.24 19.02L35.09 20.06L35.09 12.27L34.94 12.12C32.64 10.97 30.3 10.41 27.63 10.41C23.07 10.41 19.5 11.61 16.66 14.08C14.86 15.63 11.86 19.1 11.86 24.95C11.86 29.27 13.4 32.64 16.69 35.57C19.74 38.25 23.14 39.45 27.66 39.45Z" fill="#6B7B84" fill-opacity="1.000000" fill-rule="evenodd"/>
	<path id="Fill 5" d="M34.93 37.82L35.09 37.67L35.09 29.84L34.25 30.92C32.62 32.69 30.44 33.67 27.98 33.67C23.39 33.67 18.78 30.7 18.78 25.03C18.78 20.74 21.96 16.18 27.82 16.18C28.99 16.18 31.83 16.46 34.24 19.02L35.09 20.06L35.09 12.27L34.94 12.12C32.64 10.97 30.3 10.41 27.63 10.41C23.07 10.41 19.5 11.61 16.66 14.08C14.86 15.63 11.86 19.1 11.86 24.95C11.86 29.27 13.4 32.64 16.69 35.57C19.74 38.25 23.14 39.45 27.66 39.45C30.4 39.45 32.68 38.91 34.93 37.82Z" stroke="#80949F" stroke-opacity="1.000000" stroke-width="0.500000"/>
	<mask id="mask_0_727" fill="white">
		<path id="Fill 6" d="M58.0176 26.7876C56.2612 28.5435 53.7319 29.4756 50.5005 29.4756L47.5601 29.4756L47.5601 39.4502L40.9014 39.4502L40.9014 10.4131L49.6558 10.4131C52.9375 10.4131 55.2642 10.8906 57.4448 12.8013C60.105 15.1643 60.5015 18.428 60.5015 20.1013C60.5015 21.665 60.1782 24.6313 58.0176 26.7876ZM47.4346 16.9465L48.7988 16.9465C50.0503 16.9465 51.4771 17.0146 52.5566 17.7505C53.0835 18.1272 53.9683 18.9988 53.9683 20.5823C53.9683 21.7522 53.4512 22.8013 52.5967 23.4561C51.5576 24.2104 50.332 24.2078 49.3159 24.2053C49.2617 24.2053 49.2075 24.2051 49.1543 24.2051L47.4346 24.2051L47.4346 16.9465Z" clip-rule="evenodd" fill="" fill-opacity="1.000000" fill-rule="evenodd"/>
	</mask>
	<path id="Fill 6" d="M58.0176 26.7876C56.2612 28.5435 53.7319 29.4756 50.5005 29.4756L47.5601 29.4756L47.5601 39.4502L40.9014 39.4502L40.9014 10.4131L49.6558 10.4131C52.9375 10.4131 55.2642 10.8906 57.4448 12.8013C60.105 15.1643 60.5015 18.428 60.5015 20.1013C60.5015 21.665 60.1782 24.6313 58.0176 26.7876ZM47.4346 16.9465L48.7988 16.9465C50.0503 16.9465 51.4771 17.0146 52.5566 17.7505C53.0835 18.1272 53.9683 18.9988 53.9683 20.5823C53.9683 21.7522 53.4512 22.8013 52.5967 23.4561C51.5576 24.2104 50.332 24.2078 49.3159 24.2053C49.2617 24.2053 49.2075 24.2051 49.1543 24.2051L47.4346 24.2051L47.4346 16.9465Z" clip-rule="evenodd" fill="#6B7B84" fill-opacity="1.000000" fill-rule="evenodd" mask="url(#mask_0_727)"/>
	<path id="Fill 6" d="M58.1943 26.9644Q56.8296 28.3289 54.897 29.0251Q52.9531 29.7256 50.5005 29.7256L47.5601 29.7256L47.5601 29.4756L47.8101 29.4756L47.8101 39.7002L40.6514 39.7002L40.6514 10.1631L49.6558 10.1631Q50.9648 10.1631 51.9766 10.2688Q53.1006 10.3865 54.0312 10.6501Q55.022 10.9307 55.8887 11.4023Q56.7827 11.8889 57.6094 12.6133Q59.4204 14.2217 60.208 16.6323Q60.5093 17.5537 60.6455 18.5532Q60.7515 19.3303 60.7515 20.1013Q60.7515 21.7737 60.3101 23.292Q59.6704 25.4915 58.1943 26.9646L58.1943 26.9644ZM57.8413 26.6106Q59.2261 25.2285 59.8296 23.1523Q60.2515 21.7024 60.2515 20.1013Q60.2515 19.3643 60.1499 18.6208Q60.02 17.666 59.7329 16.7876Q58.9868 14.5056 57.2798 12.9893Q56.4951 12.3018 55.6499 11.8416Q54.832 11.3965 53.895 11.1311Q53.0054 10.8792 51.9248 10.7661Q50.9385 10.6631 49.6558 10.6631L40.9014 10.6631L40.9014 10.4131L41.1514 10.4131L41.1514 39.4502L40.9014 39.4502L40.9014 39.2002L47.5601 39.2002L47.5601 39.4502L47.3101 39.4502L47.3101 29.2256L50.5005 29.2256Q52.8657 29.2256 54.7275 28.5549Q56.5552 27.8962 57.8408 26.6108L57.8413 26.6106ZM47.4346 16.6965L48.7988 16.6965Q49.3647 16.6965 49.7759 16.719Q50.3271 16.7493 50.7837 16.8259Q51.9258 17.0183 52.6973 17.5439Q53.292 17.969 53.6724 18.582Q54.2183 19.4622 54.2183 20.5823Q54.2183 21.5105 53.8281 22.3208Q53.4419 23.1235 52.749 23.6543L52.7466 23.6562L52.7437 23.6582Q52.0083 24.1921 50.9888 24.3611Q50.5996 24.4255 50.1216 24.4451Q49.8423 24.4565 49.3154 24.4553L49.1543 24.4551L47.1846 24.4551L47.1846 16.6965L47.4346 16.6965ZM47.4346 17.1965L47.4346 16.9465L47.6846 16.9465L47.6846 24.2051L47.4346 24.2051L47.4346 23.9551L49.1548 23.9551L49.3164 23.9553Q49.8325 23.9565 50.1011 23.9456Q50.5483 23.9272 50.9067 23.8677Q51.8101 23.718 52.4502 23.2537L52.5967 23.4561L52.4448 23.2576Q53.043 22.7991 53.3774 22.104Q53.7183 21.3962 53.7183 20.5823Q53.7183 19.6045 53.2476 18.8455Q52.9199 18.3176 52.4155 17.957Q51.7349 17.4932 50.7007 17.3191Q49.9717 17.1965 48.7988 17.1965L47.4346 17.1965Z" fill="#80949F" fill-opacity="1.000000" fill-rule="nonzero"/>
	<path id="Fill 7" d="M80.47 24.12C79.02 22.84 77 22.1 74.71 21.32C73.08 20.76 72.18 20.44 71.57 19.89C71.1 19.49 70.89 19.06 70.89 18.48C70.89 17.21 71.75 15.86 74.16 15.86C75.8 15.86 77.17 16.56 78.24 17.95L78.66 18.49L82.18 14.02L81.86 13.7C79.71 11.55 76.87 10.41 73.66 10.41C67.18 10.41 64.28 14.62 64.28 18.8C64.28 21.04 65.08 22.85 66.66 24.17C68.06 25.38 69.78 26.05 71.42 26.6L71.61 26.67C73.07 27.15 74.58 27.65 75.49 28.46C76.11 29.03 76.39 29.66 76.39 30.49C76.39 32.39 74.9 33.67 72.67 33.67C70.91 33.67 68.59 32.8 67.37 30.38L67.05 29.75L62.67 33.79L62.93 34.16C64.33 36.13 67.47 39.45 72.88 39.45C78.84 39.45 83 35.61 83 30.13C83 26.99 81.62 25.13 80.47 24.12Z" fill="#6B7B84" fill-opacity="1.000000" fill-rule="evenodd"/>
	<path id="Fill 7" d="M74.71 21.32C73.08 20.76 72.18 20.44 71.57 19.89C71.1 19.49 70.89 19.06 70.89 18.48C70.89 17.21 71.75 15.86 74.16 15.86C75.8 15.86 77.17 16.56 78.24 17.95L78.66 18.49L82.18 14.02L81.86 13.7C79.71 11.55 76.87 10.41 73.66 10.41C67.18 10.41 64.28 14.62 64.28 18.8C64.28 21.04 65.08 22.85 66.66 24.17C68.06 25.38 69.78 26.05 71.42 26.6L71.61 26.67C73.07 27.15 74.58 27.65 75.49 28.46C76.11 29.03 76.39 29.66 76.39 30.49C76.39 32.39 74.9 33.67 72.67 33.67C70.91 33.67 68.59 32.8 67.37 30.38L67.05 29.75L62.67 33.79L62.93 34.16C64.33 36.13 67.47 39.45 72.88 39.45C78.84 39.45 83 35.61 83 30.13C83 26.99 81.62 25.13 80.47 24.12C79.02 22.84 77 22.1 74.71 21.32Z" stroke="#80949F" stroke-opacity="1.000000" stroke-width="0.500000"/>
</svg>

<svg width="97.048" height="51.314" fill="none" xmlns="http://www.w3.org/2000/svg"><path d="M36.09.25c-.55 0-1 .44-1 1v4.27c0 .55.45 1 1 1h36.33c10.12 0 18.08 7.8 18.08 17.89 0 .29.23.52.51.52h5.27c.28 0 .51-.23.51-.52C96.79 10.92 85.95.25 72.42.25H36.09Z" fill="#6B7B84" fill-rule="evenodd"/><path d="M35.09 5.52c0 .55.45 1 1 1h36.33c10.12 0 18.08 7.8 18.08 17.89 0 .29.23.52.51.52h5.27c.28 0 .51-.23.51-.52C96.79 10.92 85.95.25 72.42.25H36.09c-.55 0-1 .44-1 1v4.27Z" stroke="#80949F" stroke-width=".5"/><path d="M6.63 25.36c0-.24-.2-.43-.44-.43H.68c-.24 0-.43.19-.43.43 0 13.65 10.22 24.92 23.44 25.66l42.34.04c.55 0 1-.45 1-1v-4.58c0-.55-.45-1-1-1H25.15c-10.24-.03-18.52-8.54-18.52-19.12Z" fill="#6B7B84" fill-rule="evenodd"/><path d="M.68 24.93c-.24 0-.43.19-.43.43 0 13.65 10.22 24.92 23.44 25.66l42.34.04c.55 0 1-.45 1-1v-4.58c0-.55-.45-1-1-1H25.15c-10.24-.03-18.52-8.54-18.52-19.12 0-.24-.2-.43-.44-.43H.68Z" stroke="#80949F" stroke-width=".5"/><path d="M27.66 39.45c2.74 0 5.02-.54 7.27-1.63l.16-.15v-7.83l-.84 1.08c-1.63 1.77-3.81 2.75-6.27 2.75-4.59 0-9.2-2.97-9.2-8.64 0-4.29 3.18-8.85 9.04-8.85 1.17 0 4.01.28 6.42 2.84l.85 1.04v-7.79l-.15-.15c-2.3-1.15-4.64-1.71-7.31-1.71-4.56 0-8.13 1.2-10.97 3.67-1.8 1.55-4.8 5.02-4.8 10.87 0 4.32 1.54 7.69 4.83 10.62 3.05 2.68 6.45 3.88 10.97 3.88Z" fill="#6B7B84" fill-rule="evenodd"/><path d="m34.93 37.82.16-.15v-7.83l-.84 1.08c-1.63 1.77-3.81 2.75-6.27 2.75-4.59 0-9.2-2.97-9.2-8.64 0-4.29 3.18-8.85 9.04-8.85 1.17 0 4.01.28 6.42 2.84l.85 1.04v-7.79l-.15-.15c-2.3-1.15-4.64-1.71-7.31-1.71-4.56 0-8.13 1.2-10.97 3.67-1.8 1.55-4.8 5.02-4.8 10.87 0 4.32 1.54 7.69 4.83 10.62 3.05 2.68 6.45 3.88 10.97 3.88 2.74 0 5.02-.54 7.27-1.63Z" stroke="#80949F" stroke-width=".5"/><mask id="a" fill="#fff"><path d="M58.018 26.788c-1.757 1.756-4.286 2.688-7.517 2.688h-2.94v9.974H40.9V10.413h8.755c3.282 0 5.608.478 7.789 2.388 2.66 2.363 3.056 5.627 3.056 7.3 0 1.564-.323 4.53-2.483 6.687Zm-10.583-9.841h1.364c1.251 0 2.678.068 3.758.803.526.377 1.411 1.249 1.411 2.832 0 1.17-.517 2.22-1.371 2.874-1.04.754-2.265.752-3.281.75h-1.882v-7.26Z" clip-rule="evenodd" fill-rule="evenodd"/></mask><path d="M58.018 26.788c-1.757 1.756-4.286 2.688-7.517 2.688h-2.94v9.974H40.9V10.413h8.755c3.282 0 5.608.478 7.789 2.388 2.66 2.363 3.056 5.627 3.056 7.3 0 1.564-.323 4.53-2.483 6.687Zm-10.583-9.841h1.364c1.251 0 2.678.068 3.758.803.526.377 1.411 1.249 1.411 2.832 0 1.17-.517 2.22-1.371 2.874-1.04.754-2.265.752-3.281.75h-1.882v-7.26Z" clip-rule="evenodd" fill="#6B7B84" fill-rule="evenodd" mask="url(#a)"/><path d="M58.194 26.964q-1.364 1.365-3.297 2.061-1.944.7-4.396.7h-2.94v-.25h.25V39.7h-7.16V10.163h9.005q1.309 0 2.32.106 1.125.117 2.055.381.991.28 1.858.752.894.487 1.72 1.211 1.811 1.609 2.599 4.02.301.92.438 1.92.105.777.105 1.548 0 1.673-.44 3.191-.64 2.2-2.117 3.673Zm-.353-.353q1.385-1.383 1.989-3.459.422-1.45.422-3.05 0-.738-.102-1.481-.13-.955-.417-1.833-.746-2.282-2.453-3.799-.785-.687-1.63-1.147-.818-.446-1.755-.71-.89-.253-1.97-.366-.986-.103-2.27-.103h-8.754v-.25h.25V39.45h-.25v-.25h6.66v.25h-.25V29.226h3.19q2.365 0 4.227-.671 1.827-.659 3.113-1.944Zm-10.406-9.915h1.364q.566 0 .977.023.551.03 1.008.107 1.142.192 1.913.718.595.425.975 1.038.546.88.546 2 0 .928-.39 1.739-.386.802-1.079 1.333l-.002.002-.003.002q-.736.534-1.755.703-.39.064-.867.084-.28.011-.807.01h-2.13v-7.758h.25Zm0 .5v-.25h.25v7.26h-.25v-.25h1.881q.517 0 .785-.01.447-.019.806-.078.903-.15 1.543-.614l.147.202-.152-.198q.598-.459.932-1.154.341-.708.341-1.522 0-.977-.47-1.736-.328-.528-.832-.889-.681-.464-1.715-.638-.73-.122-1.902-.122h-1.364Z" fill="#80949F"/><path d="M80.47 24.12c-1.45-1.28-3.47-2.02-5.76-2.8-1.63-.56-2.53-.88-3.14-1.43-.47-.4-.68-.83-.68-1.41 0-1.27.86-2.62 3.27-2.62 1.64 0 3.01.7 4.08 2.09l.42.54 3.52-4.47-.32-.32c-2.15-2.15-4.99-3.29-8.2-3.29-6.48 0-9.38 4.21-9.38 8.39 0 2.24.8 4.05 2.38 5.37 1.4 1.21 3.12 1.88 4.76 2.43l.19.07c1.46.48 2.97.98 3.88 1.79.62.57.9 1.2.9 2.03 0 1.9-1.49 3.18-3.72 3.18-1.76 0-4.08-.87-5.3-3.29l-.32-.63-4.38 4.04.26.37c1.4 1.97 4.54 5.29 9.95 5.29 5.96 0 10.12-3.84 10.12-9.32 0-3.14-1.38-5-2.53-6.01Z" fill="#6B7B84" fill-rule="evenodd"/><path d="M74.71 21.32c-1.63-.56-2.53-.88-3.14-1.43-.47-.4-.68-.83-.68-1.41 0-1.27.86-2.62 3.27-2.62 1.64 0 3.01.7 4.08 2.09l.42.54 3.52-4.47-.32-.32c-2.15-2.15-4.99-3.29-8.2-3.29-6.48 0-9.38 4.21-9.38 8.39 0 2.24.8 4.05 2.38 5.37 1.4 1.21 3.12 1.88 4.76 2.43l.19.07c1.46.48 2.97.98 3.88 1.79.62.57.9 1.2.9 2.03 0 1.9-1.49 3.18-3.72 3.18-1.76 0-4.08-.87-5.3-3.29l-.32-.63-4.38 4.04.26.37c1.4 1.97 4.54 5.29 9.95 5.29 5.96 0 10.12-3.84 10.12-9.32 0-3.14-1.38-5-2.53-6.01-1.45-1.28-3.47-2.02-5.76-2.8Z" stroke="#80949F" stroke-width=".5"/></svg>
